svg/system/ghost_line.svg

<?xml version="1.0" encoding="UTF-8"?>
<svg width="24px" height="24px" viewBox="0 0 24 24" version="1.1" xmlns="http://www.w3.org/2000/svg" xmlns:xlink="http://www.w3.org/1999/xlink">
    <title>ghost_line</title>
    <g id="页面-1" stroke="none" stroke-width="1" fill="none" fill-rule="evenodd">
        <g id="System" transform="translate(-720.000000, -192.000000)">
            <g id="ghost_line" transform="translate(720.000000, 192.000000)">
                 <path d="M24,0 L24,24 L0,24 L0,0 L24,0 Z M12.5934901,23.257841 L12.5819402,23.2595131 L12.5108777,23.2950439 L12.4918791,23.2987469 L12.4918791,23.2987469 L12.4767152,23.2950439 L12.4056548,23.2595131 C12.3958229,23.2563662 12.3870493,23.2590235 12.3821421,23.2649074 L12.3780323,23.275831 L12.360941,23.7031097 L12.3658947,23.7234994 L12.3769048,23.7357139 L12.4804777,23.8096931 L12.4953491,23.8136134 L12.4953491,23.8136134 L12.5071152,23.8096931 L12.6106902,23.7357139 L12.6232938,23.7196733 L12.6232938,23.7196733 L12.6266527,23.7031097 L12.609561,23.275831 C12.6075724,23.2657013 12.6010112,23.2592993 12.5934901,23.257841 L12.5934901,23.257841 Z M12.8583906,23.1452862 L12.8445485,23.1473072 L12.6598443,23.2396597 L12.6498822,23.2499052 L12.6498822,23.2499052 L12.6471943,23.2611114 L12.6650943,23.6906389 L12.6699349,23.7034178 L12.6699349,23.7034178 L12.678386,23.7104931 L12.8793402,23.8032389 C12.8914285,23.8068999 12.9022333,23.8029875 12.9078286,23.7952264 L12.9118235,23.7811639 L12.8776777,23.1665331 C12.8752882,23.1545897 12.8674102,23.1470016 12.8583906,23.1452862 L12.8583906,23.1452862 Z M12.1430473,23.1473072 C12.1332178,23.1423925 12.1221763,23.1452606 12.1156365,23.1525954 L12.1099173,23.1665331 L12.0757714,23.7811639 C12.0751323,23.7926639 12.0828099,23.8018602 12.0926481,23.8045676 L12.108256,23.8032389 L12.3092106,23.7104931 L12.3186497,23.7024347 L12.3186497,23.7024347 L12.3225043,23.6906389 L12.340401,23.2611114 L12.337245,23.2485176 L12.337245,23.2485176 L12.3277531,23.2396597 L12.1430473,23.1473072 Z" id="MingCute" fill-rule="nonzero"></path>
                <path d="M12,4 C8.13401,4 5,7.13401 5,11 L5,19.6207 C5,19.9257 5.32764,20.1185 5.59426,19.9703 L6.53669,19.4468 C7.75977,18.7673 9.249,18.7762 10.4638,19.4704 L11.0077,19.7812 C11.6226,20.1326 12.3774,20.1326 12.9923,19.7812 L13.5362,19.4704 C14.751,18.7762 16.2402,18.7673 17.4633,19.4468 L18.4057,19.9703 C18.6724,20.1185 19,19.9257 19,19.6207 L19,11 C19,7.13401 15.866,4 12,4 Z M3,11 C3,6.02944 7.02944,2 12,2 C16.9706,2 21,6.02944 21,11 L21,19.6207 C21,21.4506 19.0341,22.6074 17.4345,21.7187 L16.492,21.1951 C15.8805,20.8553 15.1359,20.8598 14.5285,21.2069 L13.9846,21.5177 C12.7548,22.2204 11.2452,22.2204 10.0154,21.5177 L9.47154,21.2069 C8.86413,20.8598 8.11951,20.8553 7.50797,21.1951 L6.56554,21.7187 C4.96587,22.6074 3,21.4506 3,19.6207 L3,11 Z M10.5,10.5 C10.5,11.3284 9.82843,12 9,12 C8.17157,12 7.5,11.3284 7.5,10.5 C7.5,9.67157 8.17157,9 9,9 C9.82843,9 10.5,9.67157 10.5,10.5 Z M15,12 C15.8284,12 16.5,11.3284 16.5,10.5 C16.5,9.67157 15.8284,9 15,9 C14.1716,9 13.5,9.67157 13.5,10.5 C13.5,11.3284 14.1716,12 15,12 Z" id="形状" fill="#09244B"></path>
            </g>
        </g>
    </g>
</svg>

<svg xmlns="http://www.w3.org/2000/svg" width="24" height="24"><g fill="none" fill-rule="evenodd"><path d="M24 0v24H0V0h24ZM12.593 23.258l-.011.002-.071.035-.02.004-.014-.004-.071-.035c-.01-.004-.019-.001-.024.005l-.004.01-.017.428.005.02.01.013.104.074.015.004.012-.004.104-.074.012-.016.004-.017-.017-.427c-.002-.01-.009-.017-.017-.018Zm.265-.113-.013.002-.185.093-.01.01-.003.011.018.43.005.012.008.007.201.093c.012.004.023 0 .029-.008l.004-.014-.034-.614c-.003-.012-.01-.02-.02-.022Zm-.715.002a.023.023 0 0 0-.027.006l-.006.014-.034.614c0 .012.007.02.017.024l.015-.002.201-.093.01-.008.004-.011.017-.43-.003-.012-.01-.01-.184-.092Z"/><path fill="#09244B" d="M12 4a7 7 0 0 0-7 7v8.62a.4.4 0 0 0 .594.35l.943-.523a4 4 0 0 1 3.927.023l.544.311a2 2 0 0 0 1.984 0l.544-.31a4 4 0 0 1 3.927-.024l.943.523a.4.4 0 0 0 .594-.35V11a7 7 0 0 0-7-7Zm-9 7a9 9 0 0 1 18 0v8.62c0 1.83-1.966 2.987-3.565 2.099l-.943-.524a2 2 0 0 0-1.964.012l-.543.31a4 4 0 0 1-3.97 0l-.543-.31a2 2 0 0 0-1.964-.012l-.942.524C4.966 22.607 3 21.45 3 19.62V11Zm7.5-.5a1.5 1.5 0 1 1-3 0 1.5 1.5 0 0 1 3 0ZM15 12a1.5 1.5 0 1 0 0-3 1.5 1.5 0 0 0 0 3Z"/></g></svg>
